X:288
T: KOMM TROST DER NACHT
N: B0766
O: Europa, Mitteleuropa, Deutschland
R: Trost -, Tageszeiten - Lied, Abend, religioes
M: 4/4
L: 1/4
K: D
D | AFDA | BBA
A | Bcdc | BBA
F | BAGF | E2D
D | AFDA | BBA
A | Bcdc | BBA
F | BAGF | E2Dz |
A2F2 | A2F2 |
GFEF | GFEF |
GFE2 | D2
dc | BAGF | E2D

@@@ Tune index: 2506
